svgs/thin/mosquito-net.svg

<svg xmlns="http://www.w3.org/2000/svg" viewBox="0 0 640 512"><!--! Font Awesome Pro 6.4.2 by @fontawesome - https://fontawesome.com License - https://fontawesome.com/license (Commercial License) Copyright 2023 Fonticons, Inc. --><path d="M411.9 1c3.9 2.1 5.3 7 3.1 10.9L376.7 80.8l14.9 44.7c1.1 3.4-.2 7.2-3.2 9.2l-62.3 41.5 173.5 25.9c5 .6 10 1.7 14.7 3.1c4.2 1.3 6.6 5.8 5.3 10s-5.8 6.6-10 5.3c-3.9-1.2-7.9-2.1-12.1-2.6l-.2 0 0 0L320 191.4v44.5l37.3 32.4c3.3 2.9 3.7 8 .8 11.3s-8 3.7-11.3 .8L320 257.1v19.6l29.7 29.7c3.1 3.1 3.1 8.2 0 11.3s-8.2 3.1-11.3 0L320 299.3v61.3c0 17.7-14.3 32-32 32s-32-14.3-32-32V299.3l-40 40V384c0 1.4-.3 2.7-1 3.9l-40 72c-2.1 3.9-7 5.3-10.9 3.1s-5.3-7-3.1-10.9l39-70.2V336c0-2.1 .8-4.2 2.3-5.7L256 276.7V257.1L148.8 350.5C93.8 405.1 0 366.2 0 288.6c0-44 32.7-81 76.3-86.5l173.5-25.9-62.3-41.5c-3-2-4.3-5.8-3.2-9.2l14.9-44.7L161 11.9c-2.1-3.9-.8-8.7 3.1-10.9s8.7-.8 10.9 3.1l40 72c1.1 2 1.3 4.3 .6 6.4l-14.1 42.2L256 161V137.9c0-14.9 10.1-27.3 23.8-31V63.7c0-4.5 3.7-8.2 8.2-8.2s8.2 3.7 8.2 8.2V107c13.7 3.6 23.8 16.1 23.8 31v23.1l54.5-36.3L360.4 82.5c-.7-2.1-.5-4.5 .6-6.4l40-72c2.1-3.9 7-5.3 10.9-3.1zM256 191.4L78.6 217.9l-.2 0 0 0C42.8 222.4 16 252.7 16 288.6c0 63.5 76.8 95.3 121.7 50.4c.1-.1 .3-.3 .4-.4L256 235.9V191.4zM392 376h32V312H392c-4.4 0-8-3.6-8-8s3.6-8 8-8h32V264c0-4.4 3.6-8 8-8s8 3.6 8 8v32h64V264c0-4.4 3.6-8 8-8s8 3.6 8 8v32h64V264c0-4.4 3.6-8 8-8s8 3.6 8 8v32h32c4.4 0 8 3.6 8 8s-3.6 8-8 8H600v64h32c4.4 0 8 3.6 8 8s-3.6 8-8 8H600v64h32c4.4 0 8 3.6 8 8s-3.6 8-8 8H600v32c0 4.4-3.6 8-8 8s-8-3.6-8-8V472H520v32c0 4.4-3.6 8-8 8s-8-3.6-8-8V472H440v32c0 4.4-3.6 8-8 8s-8-3.6-8-8V472H392c-4.4 0-8-3.6-8-8s3.6-8 8-8h32V392H392c-4.4 0-8-3.6-8-8s3.6-8 8-8zm192 16H520v64h64V392zm0-80H520v64h64V312zM440 392v64h64V392H440zm0-16h64V312H440v64zM272 360.6c0 8.8 7.2 16 16 16s16-7.2 16-16l0-222.7c0-8.8-7.2-16-16-16s-16 7.2-16 16l0 222.7z"/></svg>

<svg xmlns="http://www.w3.org/2000/svg" viewBox="0 0 640 512"><!--! Font Awesome Pro 6.1.1 by @fontawesome - https://fontawesome.com License - https://fontawesome.com/license (Commercial License) Copyright 2022 Fonticons, Inc. --><path d="M411.9 1.008C415.7 3.154 417.1 8.024 414.1 11.89L376.7 80.81L391.6 125.5C392.7 128.9 391.4 132.7 388.4 134.7L326.2 176.2L499.7 202.1C504.7 202.7 509.6 203.7 514.3 205.2C518.6 206.5 520.9 210.1 519.7 215.2C518.4 219.4 513.9 221.8 509.7 220.5C505.8 219.3 501.7 218.4 497.6 217.9L497.4 217.9L319.1 191.4V235.9L357.3 268.3C360.6 271.2 360.9 276.3 358 279.6C355.1 282.1 350.1 283.3 346.7 280.4L319.1 257.1V276.7L349.7 306.3C352.8 309.5 352.8 314.5 349.7 317.7C346.5 320.8 341.5 320.8 338.3 317.7L319.1 299.3V360.6C319.1 378.3 305.7 392.6 287.1 392.6C270.3 392.6 255.1 378.3 255.1 360.6V299.3L216 339.3V384C216 385.4 215.7 386.7 214.1 387.9L174.1 459.9C172.8 463.8 167.1 465.1 164.1 462.1C160.3 460.8 158.9 455.1 161 452.1L200 381.9V336C200 333.9 200.8 331.8 202.3 330.3L255.1 276.7V257.1L148.8 350.5C93.77 405.1 .0003 366.2 0 288.6C0 244.6 32.72 207.6 76.34 202.1L249.8 176.2L187.6 134.7C184.6 132.7 183.3 128.9 184.4 125.5L199.3 80.81L161 11.89C158.9 8.025 160.3 3.155 164.1 1.009C167.1-1.136 172.8 .2549 174.1 4.117L214.1 76.12C216.1 78.08 216.3 80.41 215.6 82.53L201.5 124.7L255.1 161.1V137.9C255.1 123.1 266.1 110.6 279.8 106.1V63.68C279.8 59.17 283.5 55.52 287.1 55.52C292.5 55.52 296.2 59.17 296.2 63.68V106.1C309.9 110.6 319.1 123.1 319.1 137.9V161.1L374.5 124.7L360.4 82.53C359.7 80.4 359.9 78.08 361 76.12L401 4.116C403.2 .2539 408-1.137 411.9 1.008L411.9 1.008zM255.1 191.4L78.42 217.9C42.76 222.4 16 252.7 16 288.6C16 352.1 92.76 383.9 137.7 338.1C137.8 338.8 137.9 338.7 138.1 338.6L255.1 235.9V191.4zM271.1 360.6C271.1 369.5 279.2 376.6 287.1 376.6C296.8 376.6 303.1 369.5 303.1 360.6V137.9C303.1 129.1 296.8 121.9 287.1 121.9C279.2 121.9 271.1 129.1 271.1 137.9V360.6zM424 376V312H392C387.6 312 384 308.4 384 304C384 299.6 387.6 296 392 296H424V264C424 259.6 427.6 256 432 256C436.4 256 440 259.6 440 264V296H504V264C504 259.6 507.6 256 512 256C516.4 256 520 259.6 520 264V296H584V264C584 259.6 587.6 256 592 256C596.4 256 600 259.6 600 264V296H632C636.4 296 640 299.6 640 304C640 308.4 636.4 312 632 312H600V376H632C636.4 376 640 379.6 640 384C640 388.4 636.4 392 632 392H600V456H632C636.4 456 640 459.6 640 464C640 468.4 636.4 472 632 472H600V504C600 508.4 596.4 512 592 512C587.6 512 584 508.4 584 504V472H520V504C520 508.4 516.4 512 512 512C507.6 512 504 508.4 504 504V472H440V504C440 508.4 436.4 512 432 512C427.6 512 424 508.4 424 504V472H392C387.6 472 384 468.4 384 464C384 459.6 387.6 456 392 456H424V392H392C387.6 392 384 388.4 384 384C384 379.6 387.6 376 392 376H424zM520 392V456H584V392H520zM520 312V376H584V312H520zM440 392V456H504V392H440zM504 376V312H440V376H504z"/></svg>
